X: 132196
T: Miss Ann Robinson's
S: Fitzmaurice Collection
Z: BB
L: 1/8
M: 6/8
R: jig
Q: 1/4 = 170
K: G
D/E/FD G2B | AGE G2E | D/E/FD G2B | AGE cGE |
D/E/FD G2B | AGE G2c | B/c/dB c2A | AGE EDC :|
def g2e | age g2e | def g2e | age edB |
def g2e | age g2c | B/c/dB c2B | AGE EDC :|
B/c/dB c2A | BAG c2A | B/c/dB c2A | AGE EDC |
B/c/dB c2A | BAG c2A | GAB c2B | AGE EDC :|
